X: 072088
T: Gortleitragh
C: Joe Liddy
Z: BB
S: "The Leitrim Fiddler" (Dublin 1981)
N: Uses dotted rhythm
L: 1/8
M: 4/4
R: hornpipe
Q: 1/4 = 160
K: D
FG | ABGA B/c/B/A/ GA | BAed fedB | ABGA BA d2 | FE (3FED E2 FG |
(3ABA GA B/c/B/A/ GA | BAed fedB | Adce dfAG | F2 D2 D2 :|
fg | afdc dfaf | g/a/g/f/ ga bged | ceAg fdfg | (3adf Af e2 fg |
afdc dfaf | (3gfg bg edcB | Adce dfAG | F2 D2 D2 :|
